coreui/free/cil-note-add.svg

<svg xmlns="http://www.w3.org/2000/svg" viewBox="0 0 512 512">
  <path fill="var(--ci-primary-color, currentColor)" d="M24,24V496H318.627L496,318.627V24ZM56,56H464V272H272V464H56ZM305.373,464H304V304H464v1.373Z" class="ci-primary"/>
  <polygon fill="var(--ci-primary-color, currentColor)" points="208 288 208 208 288 208 288 176 208 176 208 96 176 96 176 176 96 176 96 208 176 208 176 288 208 288" class="ci-primary"/>
</svg>

<svg viewBox="0 0 512 512" xmlns="http://www.w3.org/2000/svg"><g><path d="M24 24v472h294.627L496 318.627V24Zm32 32h408v216H272v192H56Zm249.373 408h-1.38V304h160v1.37Z"/><path d="M208 288l0-80 80 0 0-32 -80 0 0-80 -32 0 0 80 -80 0 0 32 80 0 0 80 32 0Z"/></g></svg>
